X:185
T:The Miller o' Hirn
C:James Scott Skinner
O:Scotland
B:Keith Norman MacDonald : "The Skye collection of the best reels & strathspeys extant" : 1887
Z:Ralph Palmer
R:Strathspey
M:C
L:1/8
K:D
(D>E) (FE G/F/E/D/ C<A, ~A,>C | (D>E) (FD (C<A) F<D D2 :|
(A>G) (F<d) B<G-~G2 | (B>A) (^G<e) c<AA>B | (A>G) (F<d) B>A (GB) A<a f<d~d>B |
(A>G) (F<d) B<G-~G2 | (B>A) (^G<e) c<AA>c | (3dAB (3cde (3fde (3fga | (3bag (3fed (3cBA (3GF"DC"E |] xx "last" H[F4A4d4] |]
